icons/presentation-chart.svg

<svg xmlns="http://www.w3.org/2000/svg" viewBox="0 0 24 24" fill="currentColor">
  <path d="M2.75 4c0-.41421.33579-.75.75-.75h17c.4142 0 .75.33579.75.75s-.3358.75-.75.75h-.85v7.6967l-.0058.0463c-.1363 1.0902-1.086 2.257-2.4442 2.257h-4.45v1.875l3.7 2.775c.3314.2485.3985.7186.15 1.05-.2485.3314-.7186.3985-1.05.15l-2.8-2.1V20c0 .4142-.3358.75-.75.75s-.75-.3358-.75-.75v-1.5l-2.8 2.1c-.33137.2485-.80147.1814-1.05-.15-.24853-.3314-.18137-.8015.15-1.05l3.7-2.775V14.75H6.7c-1.31421 0-2.34999-1.0358-2.34999-2.35V4.75H3.5c-.41421 0-.75-.33579-.75-.75ZM12 13.25h5.2c.4302 0 .8685-.4108.95-.9032V4.75H5.85001v7.65c0 .4858.36421.85.84999.85H12ZM9.75 10.2c0-.41426-.33579-.75005-.75-.75005s-.75.33579-.75.75005v.8c0 .4142.33579.75.75.75s.75-.3358.75-.75v-.8Zm2.15-2.04998c.4142 0 .75.33579.75.75V11c0 .4142-.3358.75-.75.75s-.75-.3358-.75-.75V8.90002c0-.41421.3358-.75.75-.75ZM15.55 7.5c0-.41421-.3358-.75-.75-.75s-.75.33579-.75.75V11c0 .4142.3358.75.75.75s.75-.3358.75-.75V7.5Z"/>
</svg>

<svg width="24" height="24" viewBox="0 0 24 24" fill="none" xmlns="http://www.w3.org/2000/svg">
<path fill-rule="evenodd" clip-rule="evenodd" d="M2.75 4C2.75 3.58579 3.08579 3.25 3.5 3.25H4.35001H19.65H20.5C20.9142 3.25 21.25 3.58579 21.25 4C21.25 4.41421 20.9142 4.75 20.5 4.75H19.65V12.4467L19.6442 12.493C19.5079 13.5832 18.5582 14.75 17.2 14.75H12.75V16.625L16.45 19.4C16.7814 19.6485 16.8485 20.1186 16.6 20.45C16.3515 20.7814 15.8814 20.8485 15.55 20.6L12.75 18.5V20C12.75 20.4142 12.4142 20.75 12 20.75C11.5858 20.75 11.25 20.4142 11.25 20V18.5L8.45 20.6C8.11863 20.8485 7.64853 20.7814 7.4 20.45C7.15147 20.1186 7.21863 19.6485 7.55 19.4L11.25 16.625V14.75H6.7C5.38579 14.75 4.35001 13.7142 4.35001 12.4V4.75H3.5C3.08579 4.75 2.75 4.41421 2.75 4ZM12 13.25H17.2C17.6302 13.25 18.0685 12.8392 18.15 12.3468V4.75H5.85001V12.4C5.85001 12.8858 6.21422 13.25 6.7 13.25H12ZM9.75 10.2C9.75 9.78574 9.41421 9.44995 9 9.44995C8.58579 9.44995 8.25 9.78574 8.25 10.2V11C8.25 11.4142 8.58579 11.75 9 11.75C9.41421 11.75 9.75 11.4142 9.75 11V10.2ZM11.9 8.15002C12.3142 8.15002 12.65 8.48581 12.65 8.90002V11C12.65 11.4142 12.3142 11.75 11.9 11.75C11.4858 11.75 11.15 11.4142 11.15 11V8.90002C11.15 8.48581 11.4858 8.15002 11.9 8.15002ZM15.55 7.5C15.55 7.08579 15.2142 6.75 14.8 6.75C14.3858 6.75 14.05 7.08579 14.05 7.5V11C14.05 11.4142 14.3858 11.75 14.8 11.75C15.2142 11.75 15.55 11.4142 15.55 11V7.5Z" fill="black"/>
</svg>
